X:1
T:E voi Muse gradite
T:Bernardino Nanino
T:Source : Canzonette a la Romana a tre voci---Antwerp---P.Phalesius Jr---1607. Editor : André Vierendeels 01/02/17).
T:Notes : Original clefs :  C1, C3, C4 Editorial accidentals above the staff
T:-natural
T:E voi Muse gradite
T:©
T:©
T:©
T:©
C:Bernardino Nanino
Z:©
%%score [ 1 2 3 ]
L:1/8
Q:1/4=102
M:4/4
K:C
V:1 treble nm="Soprano 1" snm="S 1"
V:2 treble nm="Soprano 2" snm="S 2"
V:3 treble-8 nm="Tenor" snm="T"
V:1
 z4 A4 | A4 F4 | G4 A4 | _B8 | A4 z2 F2 | D2 E2 ^F2 ^G2 | A2 E2 FEDE | FG A4 B2 | c2 d2 e4- | %9
w: E|voi Mu-|se gra-|di-|te, che|di Par- nas- s'or-|nat' il sa- * * *||* cro mon-|
 e2 dc B4 | A4 z2 A2 | A2 A2 G4- | G2 F2 G2 A2 | _B4 A4 | G3 F E4 |1[M:2/4] D4 ::2 z2 D2 || %17
w: |te e|cu- sto- di-|* te d'E- li-|co- na'il|fon- * *|te|so-|
[M:4/4] E4 F4 | G4 A4 | E2 D2 E2 F2 | G2 F2 G2 A2 | B2 A2 A2 GF | G8 | A4 z2 c2 | AGAB c4 | %25
w: a- va-|men- t'in|tan- * * *||||to can-|ta- * * * *|
 A2 A2 A2 A2 | GFEF G2 A2 | F8 |[M:3/4] E2 E2 F2 | G4 A2 | _B4 A2 | G4 A2 |[M:4/4] G8- | G4 F4 | %34
w: te, can- ta- te'a-|ga- * * * * ra'in-|sie-|me, vi- va'il|can- to,|vi- va'il|can- to,|vi-|* va'il|
 E8 | ^F8 :| %36
w: can-|to.|
V:2
 z4 F4 | F4 D4 | E4 ^F4 | G8 | ^F4 z2 D2 | D2 ^C2 D2 B,2 | A,4 D2 F2 | D2 E2 ^F2 G2 | %8
w: E|voi Mu-|se gra-|di-|te, che|di Par- nas- s'or-|na- te, che|di Par- na- s'or-|
 A2 G2 E2 ^F2 | ^G2 A4 G2 | A2 F2 F2 F2 | E6 D2 | E2 F2 E2 DC | DCDE F2 F2 | ED D4 ^C2 |1 %15
w: na- te, il sa-|cro mon- *|te, e cu- sto-|di- te|d'E- li- co- * *|* * * * * na'il|fon- * * *|
[M:2/4] D4 ::2 D4 ||[M:4/4] z4 z2 D2 | E4 F4 | G4 A4 | E2 D2 E2 C2 | D2 E2 F4- | F2 ED E4 | %23
w: te,|te,|so-|a- va-|men- t'in|tan- * * *|||
 F4 z2 A2 | FEFG A4 | F2 F2 F2 F2 | EDCD EDCB, | A,2 A,2 D4 |[M:3/4] ^C2 C2 D2 | E4 C2 | D4 F2 | %31
w: to, can-|ta- * * * *|te, can- ta- te'a-|ga- * * * * * * *|* ra'in- sie-|me, vi- va'il|can- to,|vi- va'il|
 E4 F2 |[M:4/4] E6 DC | B,2 B,2 D4- |"^#" D4 C4 | D8 :| %36
w: can- to,|vi- * *|* * va'il|_ can-|to.|
V:3
 d4 d4- | d4 d4 | c4 A4 | G8 | D8 | z8 | z4 z2 d2 | d2 ^c2 d2 B2 | A2 B2 c2 d2 | e8 | A2 d2 d2 d2 | %11
w: E voi|_ Mu-|se gra-|di-|te,||che|di Par- nas- s'or-|nat' il sa- cro|mon-|te, e cu- sto-|
 c6 B2 | c2 d2 c2 BA | GA_Bc d4 | G4 A4 |1[M:2/4] D4 ::2 D4 ||[M:4/4] z4 d4 | c4- c4- | c4 c4 | %20
w: di- te|d'E- lco- * * *||na'il fon-|te,|te,|so-|a- *|* va-|
 c4- c2 BA | G4 F4 | c4- c4 | F4 F4 | F4- F2 F2 | FEDE FGAB | c4 C4 | D4- D4 |[M:3/4] A2 A2 d2 | %29
w: men- * * *|* t'in|tan- *|to, can-|ta- * te'a-|ga- * * * * * * *|* ra'in-|sie- *|me, vi- va'il|
 c4 A2 | G4 F2 | C4 F2 |[M:4/4] c6 BA | G4 D4 | A8 | D8 :| %36
w: can- to,|vi- va'il|can- to,|vi- * *|* va'il|can-|to.|

